!!!!SEGMENT: pl-kk--kk-i-329--004_costanzi-giovanni-battista--confitebor-memoriam-fecit.krn
!!!cenid: 17xx:1923
!!!COM: Costanzi, Giovanni Battista
!!!COM-rismID:
!!!CDT: 1704-1778
!!!CNT: Italian
!!!OPR: Confitebor
!!!OTL: Memoriam fecit
!!!OMV: 004
!!!PDT:
!!!AGN: Sacred
!!!SMS-siglum: PL-Kk
!!!SMS-shelfmark: Kk.I.329
!!!SMS-shelfwork: 001-004 M
!!!SMS-variant:
!!!SMS-altvar:
!!!NIFC-rismSourceID: 1001143621
!!!NIFC-islandoraID: pl-kk:5543
!!!URL-pdf-islandora: https://repozytorium.nifc.pl/islandora/object/pl-kk%3A5543/datastream/PDF/view
!!!URL-scan: https://polish.musicsources.pl/pl/lokalizacje/galeria/rekopisy/5948 @EN{Scan on Polish Music Herritage in Open Access Website} @PL{Skany w portalu Dziedzictwo Muzyki Polskiej w otwartym dostępie}
!!!ONB-nifc: UWAGA: części Confitebor: 1. Confitebor, 2. Magna opera, 3. Confessio, 4. Memoriam fecit, 5. Memor erit, 6. Fidelia omnia, 7. Redemptionem, 8. Sanctum, 9. Intellectus bonus, 10. Gloria Patri, 11. Sicut erat, 12. Amen
!!!AIN: 2 alto 2 empty 1 organ 1 tenor 2 vox
!!!key:
**kern	**fba	**kern	**kern	**kern	**kern	**kern	**text	**kern	**text	**kern	**text	**dynam
*part8	*	*part7	*part6	*part5	*part4	*part3	*part3	*part2	*part2	*part1	*part1	*
*	*	*group2	*group2	*group2	*group2	*group1	*	*group1	*	*group1	*	*
*staff8	*	*staff7	*staff6	*staff5	*staff4	*staff3	*staff3	*staff2	*staff2	*staff1	*staff1	*
*Iorgan	*	*Iempty	*Itenor	*Ialto	*Ivox	*Iempty	*	*Ialto	*	*Ivox	*	*
*I"[Organo]	*	*I"Baſso di Ripieno	*I"Tenore di Ripieno	*I"Alto di Ripieno	*I"Canto di Ripieno	*I"Baſso di Concerto	*	*I"Alto di Concerto	*	*I"Canto di Concerto.	*	*
*I'org	*	*I'B rip	*I'T rip	*I'A rip	*I'S rip	*I'B conc	*	*I'A conc	*	*I'S conc	*	*
*clefF4	*	*clefF4	*clefC4	*clefC3	*clefC1	*clefF4	*	*clefC3	*	*clefC1	*	*
*k[]	*	*k[]	*k[]	*k[]	*k[]	*k[]	*	*k[]	*	*k[]	*	*
*C:	*	*C:	*C:	*C:	*C:	*C:	*	*C:	*	*C:	*	*
*M3/4	*	*M3/4	*M3/4	*M3/4	*M3/4	*M3/4	*	*M3/4	*	*M3/4	*	*
=1	=1	=1	=1	=1	=1	=1	=1	=1	=1	=1	=1	=1
*2\right	*	*	*	*	*	*2\right	*	*2\right	*	*2\right	*	*
!LO:TX:a:t=a 3o \n Moderato Stac.to\n Memoriam	!	!LO:TX:a:t=Memoriam Fecit Tacet	!LO:TX:a:t=Memoriam Tacet	!LO:TX:a:t=Memoriam Fecit Tacet	!LO:TX:a:t=Memoriam Fecit Tacet	!LO:TX:a:t=a 3.e Stac.to\n Moderato	!	!LO:TX:a:t=a 3.e Stac.to\n Moderato	!	!LO:TX:a:t=a.3o Stac.to\n Moderato	!	!
!LO:TX:t=P:problem=nazwa instrumentu wzięta ze strony tytułowej	!	!	!	!	!	!LO:TX:b:t=1	!	!LO:TX:b:t=8.	!	!LO:TX:b:t=8	!	!
!	!	!	!	!	!	!	!	!LO:N:vis=00	!	!LO:N:vis=00	!	!
4c\	.	2.ryy	2.ryy	2.ryy	2.ryy	2.r	.	0.r	.	0.r	.	.
4G\	.	.	.	.	.	.	.	.	.	.	.	.
8.r	.	.	.	.	.	.	.	.	.	.	.	.
16F\	.	.	.	.	.	.	.	.	.	.	.	.
=2	=2	=2	=2	=2	=2	=2	=2	=2	=2	=2	=2	=2
8.E\L	.	2.ryy	2.ryy	2.ryy	2.ryy	4r	.	.	.	.	.	.
16D\Jk	.	.	.	.	.	.	.	.	.	.	.	.
4C\	.	.	.	.	.	4r	.	.	.	.	.	.
8.r	.	.	.	.	.	8.r	.	.	.	.	.	.
16G\	.	.	.	.	.	16G\	me-	.	.	.	.	.
=3	=3	=3	=3	=3	=3	=3	=3	=3	=3	=3	=3	=3
4c\	.	2.ryy	2.ryy	2.ryy	2.ryy	4c\	-mo-	.	.	.	.	.
4G\	.	.	.	.	.	4G\	-ri-	.	.	.	.	.
4E\	.	.	.	.	.	4E\	-am	.	.	.	.	.
!LO:LB:g=original	!	!	!	!	!	!	!	!	!	!	!	!
=4	=4	=4	=4	=4	=4	=4	=4	=4	=4	=4	=4	=4
4C\	.	2.ryy	2.ryy	2.ryy	2.ryy	8.C/L	fe-	.	.	.	.	.
.	.	.	.	.	.	16BB/Jk	.	.	.	.	.	.
!	!	!	!	!	!	!LO:LB:g=original	!	!	!	!	!	!
4C\	.	.	.	.	.	4C/	-cit	.	.	.	.	.
4E\	6	.	.	.	.	8.c\	mi-	.	.	.	.	.
.	.	.	.	.	.	8qqD/	.	.	.	.	.	.
.	.	.	.	.	.	16E\	-ra-	.	.	.	.	.
=5	=5	=5	=5	=5	=5	=5	=5	=5	=5	=5	=5	=5
!	!	!	!	!	!	!	!	!LO:N:vis=00	!	!LO:N:vis=00	!	!
4F\	.	2.ryy	2.ryy	2.ryy	2.ryy	8.F\	-bi-	0.r	.	0.r	.	.
.	.	.	.	.	.	.8qqD/	.	.	.	.	.	.
.	.	.	.	.	.	16E\	-li-	.	.	.	.	.
4F\	.	.	.	.	.	4D\	-um	.	.	.	.	.
4G\	.	.	.	.	.	4G\	ſu-	.	.	.	.	.
=6	=6	=6	=6	=6	=6	=6	=6	=6	=6	=6	=6	=6
4C/	.	2.ryy	2.ryy	2.ryy	2.ryy	8.E\L	-o-	.	.	.	.	.
.	.	.	.	.	.	16D\Jk	.	.	.	.	.	.
4C/	.	.	.	.	.	4C/	-rum	.	.	.	.	.
4C/	.	.	.	.	.	8.C/	mi-	.	.	.	.	.
.	.	.	.	.	.	16C/	-ra-	.	.	.	.	.
=7	=7	=7	=7	=7	=7	=7	=7	=7	=7	=7	=7	=7
4GG/	.	2.ryy	2.ryy	2.ryy	2.ryy	4.BB/	-bi-	.	.	.	.	.
4GG/	.	.	.	.	.	.	.	.	.	.	.	.
.	.	.	.	.	.	8AA/	-li-	.	.	.	.	.
4GG/	.	.	.	.	.	8GG/	-um	.	.	.	.	.
.	.	.	.	.	.	8G\	ſu-	.	.	.	.	.
!	!	!	!	!	!	!LO:LB:g=original	!	!	!	!	!	!
=8	=8	=8	=8	=8	=8	=8	=8	=8	=8	=8	=8	=8
4C/	.	2.ryy	2.ryy	2.ryy	2.ryy	8.E\L	-o-	.	.	.	.	.
.	.	.	.	.	.	16D\Jk	.	.	.	.	.	.
4C/	.	.	.	.	.	4C/	-rum	.	.	.	.	.
4C/	.	.	.	.	.	4r	.	.	.	.	.	.
=9	=9	=9	=9	=9	=9	=9	=9	=9	=9	=9	=9	=9
!	!	!	!	!	!	!LO:TX:b:t=1	!	!	!	!	!	!LO:DY:t=po
4C/	.	2.ryy	2.ryy	2.ryy	2.ryy	2.r	.	4e\	Mi-	4cc\	Mi-	p
4E\	.	.	.	.	.	.	.	4e\	-ſe-	4cc\	-ſe-	.
4C/	.	.	.	.	.	.	.	4e\	-ri-	4cc\	-ri	.
=10	=10	=10	=10	=10	=10	=10	=10	=10	=10	=10	=10	=10
4G\	.	2.ryy	2.ryy	2.ryy	2.ryy	4G\	mi-	(4e\	-cors	(4cc\	cors	.
4B\	.	.	.	.	.	4G\	-ſe-	4d\)	.	4b\)	.	.
4G\	.	.	.	.	.	4G\	-ri-	4r	.	4r	.	.
=11	=11	=11	=11	=11	=11	=11	=11	=11	=11	=11	=11	=11
4D\	.	2.ryy	2.ryy	2.ryy	2.ryy	2.D\	-cors	4f\	Mi-	4dd\	Mi-	.
4Fn\	.	.	.	.	.	.	.	4f\	-ſe-	4dd\	-ſe-	.
4D\	.	.	.	.	.	.	.	4f\	-ri-	4dd\	-ri	.
!LO:LB:g=original	!	!	!	!	!	!	!	!LO:LB:g=original	!	!LO:LB:g=original	!	!
=12	=12	=12	=12	=12	=12	=12	=12	=12	=12	=12	=12	=12
4A\	.	2.ryy	2.ryy	2.ryy	2.ryy	4A\	mi-	(4f\	-cors	(4dd\	cors	.
4c\	.	.	.	.	.	4A\	-ſe-	4e\)	.	4cc\)	.	.
4A\	.	.	.	.	.	4A\	-ri-	4r	.	4r	.	.
=13	=13	=13	=13	=13	=13	=13	=13	=13	=13	=13	=13	=13
!	!	!	!	!	!	!LO:SIC:l:v:s=cors	!	!	!	!	!	!
4E\	6	2.ryy	2.ryy	2.ryy	2.ryy	2E\	-cor	4r	.	4cc\	et	.
4E\	-5	.	.	.	.	.	.	2g\	et	4b-X\	mi-	.
4E\	.	.	.	.	.	4E\	et	.	.	4b-\	-ſe-	.
!	!	!	!	!	!	!LO:PB:g=original	!	!	!	!	!	!
=14	=14	=14	=14	=14	=14	=14	=14	=14	=14	=14	=14	=14
!LO:TX:b:t=g	!	!	!	!	!	!	!	!	!	!	!	!
2F\	6	2.ryy	2.ryy	2.ryy	2.ryy	2F\	mi-	4g\	mi-	4a\	-ra-	.
.	.	.	.	.	.	.	.	4f\	.	4cc\	.	.
4F#X\	5	.	.	.	.	4F#X\	-ſe-	4a\	-ſe-	4b\	.	.
=15	=15	=15	=15	=15	=15	=15	=15	=15	=15	=15	=15	=15
2.G\	n3	2.ryy	2.ryy	2.ryy	2.ryy	2.G\	-ra-	8.g\L	-ra-	8bn\L	.	.
!	!	!	!	!	!	!	!	!LO:TX:t=P:problem=skreślona przednutka?	!	!	!	!
.	.	.	.	.	.	.	.	.	.	8cc\J	.	.
.	.	.	.	.	.	.	.	16a\Jk	.	.	.	.
.	.	.	.	.	.	.	.	4b\	.	4dd\	.	.
.	.	.	.	.	.	.	.	4b\	.	4dd\	.	.
=16	=16	=16	=16	=16	=16	=16	=16	=16	=16	=16	=16	=16
4D\	.	2.ryy	2.ryy	2.ryy	2.ryy	4D\	.	8a\L	.	2dd\	.	.
.	.	.	.	.	.	.	.	8f#X\J	.	.	.	.
4E\	.	.	.	.	.	4E\	.	4g\	.	.	.	.
4F#X\	.	.	.	.	.	4F#X\	-tor	4a\	-tor	4cc\	-tes	.
!	!	!	!	!	!	!	!	!LO:LB:g=original	!	!LO:LB:g=original	!	!
=17	=17	=17	=17	=17	=17	=17	=17	=17	=17	=17	=17	=17
!	!	!	!	!	!	!LO:N:vis=4	!	!	!	!	!	!
4.G\	.	2.ryy	2.ryy	2.ryy	2.ryy	4.G\	do-	4d\	do-	4.b\	do-	.
!	!	!	!	!	!	!	!	!LO:N:vis=4	!	!	!	!
.	.	.	.	.	.	.	.	8c\	-mi-	.	.	.
8GG/	.	.	.	.	.	8GG/	-mi-	8c\	.	8a\	-mi-	.
4GG/	.	.	.	.	.	4GG/	-nus	4B/	-nus	4g\	-nus	.
=18	=18	=18	=18	=18	=18	=18	=18	=18	=18	=18	=18	=18
2D\	#3	2.ryy	2.ryy	2.ryy	2.ryy	2D\	eſ-	(4c\	e-	2a\	es-	.
.	.	.	.	.	.	.	.	4f#X\	.	.	.	.
4G\	.	.	.	.	.	4G\	-cam	4g\)	-ſca(m)	4b\	-cam	.
=19	=19	=19	=19	=19	=19	=19	=19	=19	=19	=19	=19	=19
4D\	.	2.ryy	2.ryy	2.ryy	2.ryy	(4D\	de-	2a\	de-	2cc\	de-	.
4F#X\	.	.	.	.	.	4F#X\)	.	.	.	.	.	.
4G\	.	.	.	.	.	4G\	-dit	4g\	-dit	4b\	-dit	.
!LO:LB:g=original	!	!	!	!	!	!LO:LB:g=original	!	!	!	!	!	!
=20	=20	=20	=20	=20	=20	=20	=20	=20	=20	=20	=20	=20
2D\	#3	2.ryy	2.ryy	2.ryy	2.ryy	2D\	ti-	2f#X\	ti-	2a\	ti-	.
4G\	.	.	.	.	.	4G\	.	4g\	.	4b\	.	.
=21	=21	=21	=21	=21	=21	=21	=21	=21	=21	=21	=21	=21
4D\	.	2.ryy	2.ryy	2.ryy	2.ryy	4D\	-men-	2a\	-me-	2cc\	-men-	.
!LO:SIC:v:s=4F#	!	!	!	!	!	!	!	!	!	!	!	!
4F\	.	.	.	.	.	4F#X\	.	.	.	.	.	.
4G\	.	.	.	.	.	4G\	.	4g\	.	4b\	.	.
=22	=22	=22	=22	=22	=22	=22	=22	=22	=22	=22	=22	=22
4C\	.	2.ryy	2.ryy	2.ryy	2.ryy	4C\	-ti-	8e\L	-ti-	4cc\	-ti-	.
.	.	.	.	.	.	.	.	8a\J	.	.	.	.
.	.	.	.	.	.	.	.	8qg/	.	.	.	.
2D\	#3	.	.	.	.	2D\	-bus	2f#X\	-bus	2a\	-bus	.
!	!	!	!	!	!	!	!	!LO:LB:g=original	!	!LO:LB:g=original	!	!
=23	=23	=23	=23	=23	=23	=23	=23	=23	=23	=23	=23	=23
4GG/	.	2.ryy	2.ryy	2.ryy	2.ryy	4GG/	ſe	4g\	ſe	4g\	ſe	.
4r	.	.	.	.	.	4r	.	4r	.	4r	.	.
!LO:TX:a:t=P:problem=pojedyncza kreska taktowa	!	!	!	!	!	!	!	!LO:TX:a:t=Allo	!	!LO:TX:a:t=All.o	!	!
4r	.	.	.	.	.	4r	.	4r	.	4r	.	.
=24	=24	=24	=24	=24	=24	=24	=24	=24	=24	=24	=24	=24
*M4/4	*	*	*	*	*	*M4/4	*	*M4/4	*	*M4/4	*	*
*met(c)	*	*	*	*	*	*met(c)	*	*met(c)	*	*met(c)	*	*
!LO:TX:t=P:problem=mixed beam	!	!	!	!	!	!	!	!LO:TX:b:t=1	!	!	!	!
!LO:TX:a:t=All.o	!	!	!	!	!	!LO:TX:a:t=Allo:	!	!	!	!	!	!
8G\L	.	1ryy	1ryy	1ryy	1ryy	4G\	me-	1r	.	2r	.	.
8GG/J	.	.	.	.	.	.	.	.	.	.	.	.
8BB/L	.	.	.	.	.	8B\	-mo-	.	.	.	.	.
16AA/L	.	.	.	.	.	16A\	-ri-	.	.	.	.	.
16GG/JJ	.	.	.	.	.	16G\	-am	.	.	.	.	.
!	!	!	!	!	!	!LO:LB:g=original	!	!	!	!	!	!
8D\L	.	.	.	.	.	8A\	fe-	.	.	4r	.	.
8D\	.	.	.	.	.	8D\	-cit	.	.	.	.	.
8D\	.	.	.	.	.	8D\	mi-	.	.	[4dd\	mi-	.
8D\J	.	.	.	.	.	8D\	-ra-	.	.	.	.	.
=25	=25	=25	=25	=25	=25	=25	=25	=25	=25	=25	=25	=25
8D\L	.	1ryy	1ryy	1ryy	1ryy	8E\	-bi-	4r	.	8dd\]	.	.
8A\	.	.	.	.	.	8A\	-li-	.	.	8cc\	-ra-	.
8A\	.	.	.	.	.	8A\	-um	[4a\	mi-	[4cc\	-bi-	.
8G\J	.	.	.	.	.	8G\	ſu-	.	.	.	.	.
!LO:LB:g=original	!	!	!	!	!	!	!	!	!	!	!	!
4F#X\	3	.	.	.	.	4F#X\	-o-	8a\]	.	8cc\]	.	.
.	.	.	.	.	.	.	.	8a\	-ra-	16b\LL	-li-	.
.	.	.	.	.	.	.	.	.	.	16cc\JJ	.	.
4D\	7	.	.	.	.	4D\	.	[4a\	-bi-	8dd\	-um	.
.	.	.	.	.	.	.	.	.	.	8cc\	Su-	.
!	!	!	!	!	!	!	!	!	!	!LO:LB:g=original	!	!
=26	=26	=26	=26	=26	=26	=26	=26	=26	=26	=26	=26	=26
8G\L	.	1ryy	1ryy	1ryy	1ryy	8G\L	.	8a\]	.	4cc\	-o-	.
8A\	.	.	.	.	.	8A\	.	16g\LL	-li-	.	.	.
.	.	.	.	.	.	.	.	16f#X\JJ	.	.	.	.
8B\	.	.	.	.	.	8B\	.	8g\	-um	4b\	-rum	.
8G\J	.	.	.	.	.	8G\J	.	8g\	ſu-	.	.	.
8D\L	4	.	.	.	.	4D\	-rum	4a\	-o-	4r	.	.
8E\	.	.	.	.	.	.	.	.	.	.	.	.
8F#X\	6	.	.	.	.	4D\	mi-	4f#X\	-rum	4dd\	mi-	.
8D\J	.	.	.	.	.	.	.	.	.	.	.	.
!	!	!	!	!	!	!LO:LB:g=original	!	!LO:LB:g=original	!	!	!	!
=27	=27	=27	=27	=27	=27	=27	=27	=27	=27	=27	=27	=27
2A\	4	1ryy	1ryy	1ryy	1ryy	2A\	-ſe-	4r	.	8.dd\	-ſe-	.
.	#3	.	.	.	.	.	.	.	.	16cc#X\	-ri-	.
.	.	.	.	.	.	.	.	4a\	mi-	4cc#\	-cors	.
2D\	3	.	.	.	.	2F#X\	-ri-	8.a\L	-ſe-	4r	.	.
.	4	.	.	.	.	.	.	16g\Jk	.	.	.	.
.	3	.	.	.	.	.	.	4f#X\	-ri-	4ccn\	mi-	.
=28	=28	=28	=28	=28	=28	=28	=28	=28	=28	=28	=28	=28
2G\	.	1ryy	1ryy	1ryy	1ryy	4G\	-corſ	4g\	-cors	8.cc\	-ſe-	.
.	.	.	.	.	.	.	.	.	.	16b\	-ri-	.
.	.	.	.	.	.	4G\	mi-	4r	.	4b\	-cors	.
8G\L	.	.	.	.	.	4G\	-ſe-	2r	.	4g\	me-	.
16B\L	.	.	.	.	.	.	.	.	.	.	.	.
16A\JJ	.	.	.	.	.	.	.	.	.	.	.	.
8G\L	.	.	.	.	.	4GG/	-ri-	.	.	8cc\	-mo-	.
8G\J	.	.	.	.	.	.	.	.	.	16a\	-ri-	.
.	.	.	.	.	.	.	.	.	.	16g\	-am	.
!	!	!	!	!	!	!	!	!	!	!LO:LB:g=original	!	!
=29	=29	=29	=29	=29	=29	=29	=29	=29	=29	=29	=29	=29
8D\L	#3	1ryy	1ryy	1ryy	1ryy	4D\	-corſ	4r	.	8a\	fe-	.
8D\	.	.	.	.	.	.	.	.	.	8d/	-cit	.
8D\	.	.	.	.	.	4r	.	8d\	mi-	[4dd\	mi-	.
8D\J	.	.	.	.	.	.	.	8d\	-ra-	.	.	.
8E\L	.	.	.	.	.	2r	.	8e\	-bi-	8dd\]	.	.
8E\	.	.	.	.	.	.	.	8e\	-li-	8cc\	-ra-	.
8F#X\	.	.	.	.	.	.	.	8f#X\	-um	[4cc\	-bi-	.
8F#\J	.	.	.	.	.	.	.	8f#\	ſu-	.	.	.
!LO:LB:g=original	!	!	!	!	!	!	!	!	!	!	!	!
=30	=30	=30	=30	=30	=30	=30	=30	=30	=30	=30	=30	=30
8G\L	.	1ryy	1ryy	1ryy	1ryy	4G\	me-	8g\L	-o-	8cc\]	.	.
8G\	.	.	.	.	.	.	.	8d\J	.	16b\LL	-li-	.
.	.	.	.	.	.	.	.	.	.	16a\JJ	.	.
8G\	.	.	.	.	.	8B\	-mo-	[4g\	.	8b\	-um	.
8G\J	.	.	.	.	.	16A\	-ri-	.	.	8b\	ſu-	.
.	.	.	.	.	.	16G\	-am	.	.	.	.	.
!	!	!	!	!	!	!	!	!LO:LB:g=original	!	!	!	!
8D\L	.	.	.	.	.	4d\	fe-	8g\L]	.	4b\	-o-	.
8D\	.	.	.	.	.	.	.	16f#X\L	.	.	.	.
.	.	.	.	.	.	.	.	16e\JJ	.	.	.	.
8D\	.	.	.	.	.	4D\	-cit	8f#\	-rum	4a\	-rum	.
8D\J	.	.	.	.	.	.	.	8a\	mi-	.	.	.
!	!	!	!	!	!	!LO:LB:g=original	!	!	!	!LO:LB:g=original	!	!
=31	=31	=31	=31	=31	=31	=31	=31	=31	=31	=31	=31	=31
4G\	.	1ryy	1ryy	1ryy	1ryy	4G\	mi-	8b\L	-ſe-	2r	.	.
.	.	.	.	.	.	.	.	8g\J	.	.	.	.
4A\	#6	.	.	.	.	4A\	-ra-	8f#X\L	-ri-	.	.	.
.	.	.	.	.	.	.	.	8a\J	.	.	.	.
4B\	.	.	.	.	.	8B\	-bi-	4g\	-corſ	2dd\	mi-	.
.	.	.	.	.	.	8G\	-li-	.	.	.	.	.
4F#X\	.	.	.	.	.	8F#X\	-um	4a\	et	.	.	.
.	.	.	.	.	.	8A\	ſu-	.	.	.	.	.
=32	=32	=32	=32	=32	=32	=32	=32	=32	=32	=32	=32	=32
4G\	.	1ryy	1ryy	1ryy	1ryy	4G\	-o-	4.d\	mi-	8b\L	-ſe-	.
.	.	.	.	.	.	.	.	.	.	8g\J	.	.
4A\	.	.	.	.	.	4A\	.	.	.	8f#X\L	-ri-	.
.	.	.	.	.	.	.	.	8f#X\	-ſe-	8a\J	.	.
4B\	.	.	.	.	.	4B\	.	8g\L	-ra-	4g\	-corſ	.
.	.	.	.	.	.	.	.	8b\J	.	.	.	.
4d\	#3	.	.	.	.	4d\	.	8a\L	.	4dd\	et	.
.	.	.	.	.	.	.	.	8f#X\J	.	.	.	.
!	!	!	!	!	!	!	!	!LO:LB:g=original	!	!	!	!
=33	=33	=33	=33	=33	=33	=33	=33	=33	=33	=33	=33	=33
4G\	.	1ryy	1ryy	1ryy	1ryy	4G\	.	4g\	.	8b\L	mi-	.
.	.	.	.	.	.	.	.	.	.	8g\J	.	.
4D\	.	.	.	.	.	4D\	.	4a\	.	8f#X\L	-ſe-	.
.	.	.	.	.	.	.	.	.	.	8a\J	.	.
8GG/L	.	.	.	.	.	8GG/L	.	4b\	.	4g\	-ra-	.
8AA/	.	.	.	.	.	8AA/	.	.	.	.	.	.
8BB/	.	.	.	.	.	8BB/	.	4b\	-tor	4dd\	-tor	.
8GG/J	.	.	.	.	.	8GG/J	.	.	.	.	.	.
!	!	!	!	!	!	!LO:LB:g=original	!	!	!	!LO:PB:g=original	!	!
=34	=34	=34	=34	=34	=34	=34	=34	=34	=34	=34	=34	=34
8D\L	6 4	1ryy	1ryy	1ryy	1ryy	4D\	-rum	4.b\	do-	4.dd\	Do-	.
8D\	x #	.	.	.	.	.	.	.	.	.	.	.
8D\	5 3	.	.	.	.	4r	.	.	.	.	.	.
8D\J	.	.	.	.	.	.	.	16a\LL	-mi-	16cc\LL	-mi-	.
.	.	.	.	.	.	.	.	16g\JJ	.	16b\JJ	.	.
!LO:LB:g=original	!	!	!	!	!	!	!	!	!	!	!	!
8D\L	.	.	.	.	.	2d\	mi-	4f#X\	-nuſ	4a\	-nus	.
8E\	.	.	.	.	.	.	.	.	.	.	.	.
8F#X\	.	.	.	.	.	.	.	4r	.	4r	.	.
8D\J	.	.	.	.	.	.	.	.	.	.	.	.
=35	=35	=35	=35	=35	=35	=35	=35	=35	=35	=35	=35	=35
2A\	4	1ryy	1ryy	1ryy	1ryy	8.d\	-ſe-	2a\	mi-	4r	.	.
.	3	.	.	.	.	16c#X\	-ri-	.	.	.	.	.
.	.	.	.	.	.	4c#,<\	-corſ	.	.	4ee\	mi-	.
2F#X\	x 4	.	.	.	.	8.c#\	et	4.a\	-ſe-	4.ee\	-ſe-	.
.	7 3	.	.	.	.	16c#\	mi-	.	.	.	.	.
!	!	!	!	!	!	!LO:N:vis=8	!	!	!	!	!	!
.	.	.	.	.	.	4F#X\	-ſe-	.	.	.	.	.
.	.	.	.	.	.	.	.	8cc\	-ri-	8ee\	-ri-	.
=36	=36	=36	=36	=36	=36	=36	=36	=36	=36	=36	=36	=36
4G\	.	1ryy	1ryy	1ryy	1ryy	4G\	-ra-	8b\	-cors	4dd\	-cors	.
.	.	.	.	.	.	.	.	8g\	et	.	.	.
4E\	.	.	.	.	.	4c\	-tor	8g\	mi-	4r	.	.
.	.	.	.	.	.	.	.	8g\	-ſe-	.	.	.
!	!	!	!	!	!	!	!	!LO:LB:g=original	!	!	!	!
4Fn\	.	.	.	.	.	4Fn\	do-	8a\	-ra-	2r	.	.
.	.	.	.	.	.	.	.	8g\	-tor	.	.	.
4G\	.	.	.	.	.	4G\	-mi-	8fn\	do-	.	.	.
.	.	.	.	.	.	.	.	16e\LL	-mi-	.	.	.
.	.	.	.	.	.	.	.	16d\JJ	.	.	.	.
!	!	!	!	!	!	!LO:PB:g=original	!	!	!	!	!	!
=37	=37	=37	=37	=37	=37	=37	=37	=37	=37	=37	=37	=37
4C\	.	1ryy	1ryy	1ryy	1ryy	4C/	-nus	4e\	-nuſ	4cc\	es-	.
4c\	.	.	.	.	.	4r	.	4r	.	8ee\L	-cam	.
.	.	.	.	.	.	.	.	.	.	16dd\L	.	.
.	.	.	.	.	.	.	.	.	.	16cc\JJ	.	.
!	!	!	!	!	!	!	!	!	!	!LO:LB:g=original	!	!
4B\	.	.	.	.	.	4r	.	2g\	ti-	8gg\	de-	.
.	.	.	.	.	.	.	.	.	.	8g\	-dit	.
4c\	.	.	.	.	.	4c\	ti-	.	.	4cc\	ti-	.
=38	=38	=38	=38	=38	=38	=38	=38	=38	=38	=38	=38	=38
4Fn\	.	1ryy	1ryy	1ryy	1ryy	4c\	-men-	4a\	-men-	8dd\L	-men-	.
.	.	.	.	.	.	.	.	.	.	8g\J	.	.
4G\	.	.	.	.	.	8B\	-ti-	8g\	-ti-	8gg\	-ti-	.
.	.	.	.	.	.	8B\	-buſ	8g\	-bus	8ffn\	-bus	.
8c\L	.	.	.	.	.	4c\	ſe	8g\	se	8ee\	se	.
8C\	.	.	.	.	.	.	.	8g\	ti-	8ee\	ti-	.
8E\	.	.	.	.	.	4C/	ti-	4cc\	-men-	4ee\	-men-	.
8F\J	.	.	.	.	.	.	.	.	.	.	.	.
=39	=39	=39	=39	=39	=39	=39	=39	=39	=39	=39	=39	=39
8G\L	.	1ryy	1ryy	1ryy	1ryy	8G\L	-men-	2b\	.	2dd\	.	.
16B\L	.	.	.	.	.	16B\L	.	.	.	.	.	.
16A\JJ	.	.	.	.	.	16A\JJ	.	.	.	.	.	.
8G\L	.	.	.	.	.	8G\L	.	.	.	.	.	.
8G\J	.	.	.	.	.	8G\J	.	.	.	.	.	.
!LO:LB:g=original	!	!	!	!	!	!	!	!	!	!	!	!
8c\L	.	.	.	.	.	8c\L	.	2cc\	.	2ee\	.	.
16e\L	.	.	.	.	.	16e\L	.	.	.	.	.	.
16d\JJ	.	.	.	.	.	16d\JJ	.	.	.	.	.	.
8c\L	.	.	.	.	.	8c\L	.	.	.	.	.	.
8c\J	.	.	.	.	.	8c\J	.	.	.	.	.	.
!	!	!	!	!	!	!LO:LB:g=original	!	!LO:PB:g=original	!	!LO:LB:g=original	!	!
=40	=40	=40	=40	=40	=40	=40	=40	=40	=40	=40	=40	=40
8G\L	.	1ryy	1ryy	1ryy	1ryy	2G\	.	2g\	.	1b	.	.
8G\	.	.	.	.	.	.	.	.	.	.	.	.
8G\	.	.	.	.	.	.	.	.	.	.	.	.
8G\J	.	.	.	.	.	.	.	.	.	.	.	.
8F\L	.	.	.	.	.	2F\	.	2d\	.	.	.	.
8F\	.	.	.	.	.	.	.	.	.	.	.	.
8F\	.	.	.	.	.	.	.	.	.	.	.	.
8F\J	.	.	.	.	.	.	.	.	.	.	.	.
=41	=41	=41	=41	=41	=41	=41	=41	=41	=41	=41	=41	=41
8E\L	6	1ryy	1ryy	1ryy	1ryy	2E\	.	2e\	ti-	2cc\	-ti-	.
8E\	.	.	.	.	.	.	.	.	.	.	.	.
8E\	.	.	.	.	.	.	.	.	.	.	.	.
8E\J	.	.	.	.	.	.	.	.	.	.	.	.
8D\L	6 n3	.	.	.	.	4.D\	-ti-	2fn\	-buſ	2dd\	-bus	.
8D\	.	.	.	.	.	.	.	.	.	.	.	.
8D\	.	.	.	.	.	.	.	.	.	.	.	.
8D\J	.	.	.	.	.	8D\	-buſ	.	.	.	.	.
=42	=42	=42	=42	=42	=42	=42	=42	=42	=42	=42	=42	=42
!	!	!	!	!	!	!LO:TX:t=P:problem=mixed beam	!	!	!	!	!	!
8C\L	.	1ryy	1ryy	1ryy	1ryy	8C/L	ſe	4g\	ſe	4ee\	ſe	.
8c\	.	.	.	.	.	8c\J	.	.	.	.	.	.
8E\	.	.	.	.	.	8E\L	ti-	4r	.	4r	.	.
8Fn\J	.	.	.	.	.	8Fn\J	.	.	.	.	.	.
4G\	.	.	.	.	.	4G\	-men-	2g\	ti-	2r	.	.
4GG/	.	.	.	.	.	8GG/	-ti-	.	.	.	.	.
.	.	.	.	.	.	8GG/	-buſ	.	.	.	.	.
=43	=43	=43	=43	=43	=43	=43	=43	=43	=43	=43	=43	=43
4C/	.	1ryy	1ryy	1ryy	1ryy	4C/	ſe	8e\L	-men-	8r	.	.
.	.	.	.	.	.	.	.	16c\L	.	8g\	ti-	.
.	.	.	.	.	.	.	.	16d\JJ	.	.	.	.
4c\	.	.	.	.	.	4r	.	8e\L	.	[4cc\	-men-	.
.	.	.	.	.	.	.	.	8f\J	.	.	.	.
4G\	.	.	.	.	.	4r	.	4g\	.	8cc\L]	.	.
.	.	.	.	.	.	.	.	.	.	16b\L	.	.
.	4	.	.	.	.	.	.	.	.	16cc\JJ	.	.
4GG/	3	.	.	.	.	4G\	ti-	4f\	.	[4dd\	.	.
!LO:PB:g=original	!	!	!	!	!	!LO:LB:g=original	!	!	!	!LO:LB:g=original	!	!
=44	=44	=44	=44	=44	=44	=44	=44	=44	=44	=44	=44	=44
!	!	!	!	!	!	!	!	!	!	!LO:TX:a:t=P:problem=brak zakończenia ligatury	!	!
2C\	.	1ryy	1ryy	1ryy	1ryy	2C\	-men-	4.e\	.	8dd\L]	.	.
.	.	.	.	.	.	.	.	.	.	8cc\J	.	.
.	.	.	.	.	.	.	.	.	.	[4ee\	.	.
.	.	.	.	.	.	.	.	16d\LL	.	.	.	.
.	.	.	.	.	.	.	.	16e\JJ	.	.	.	.
!	!	!	!	!	!	!	!	!LO:LB:g=original	!	!	!	!
2D\	9	.	.	.	.	2D\	.	4.f\	.	8ee\L]	.	.
.	8	.	.	.	.	.	.	.	.	16dd\L	.	.
.	.	.	.	.	.	.	.	.	.	16ee\JJ	.	.
.	.	.	.	.	.	.	.	.	.	[4ff\	.	.
.	.	.	.	.	.	.	.	16e\LL	.	.	.	.
.	.	.	.	.	.	.	.	16f\JJ	.	.	.	.
=45	=45	=45	=45	=45	=45	=45	=45	=45	=45	=45	=45	=45
2E\	9	1ryy	1ryy	1ryy	1ryy	2E\	.	4.g\	.	8ff\L]	.	.
.	8	.	.	.	.	.	.	.	.	8ee\J	.	.
.	.	.	.	.	.	.	.	.	.	4gg\	.	.
.	.	.	.	.	.	.	.	16f\LL	.	.	.	.
.	.	.	.	.	.	.	.	16g\JJ	.	.	.	.
4.F\	.	.	.	.	.	4.F\	-ti-	8a\L	.	8ff\L	-ti-	.
.	.	.	.	.	.	.	.	8g\J	.	8ee\J	.	.
.	.	.	.	.	.	.	.	8f\	-ti-	8dd\L	-bus	.
8F\	.	.	.	.	.	8F\	-bus	8e\	-buſ	8cc\J	.	.
=46	=46	=46	=46	=46	=46	=46	=46	=46	=46	=46	=46	=46
4G\	.	1ryy	1ryy	1ryy	1ryy	4G\	ſe	4d\	ſe	4b\	ſe	.
4G\	.	.	.	.	.	4G\	ti-	4g\	ti-	4b\	ti-	.
8F#X\L	.	.	.	.	.	2F#X\	-men-	2a\	-men-	2cc\	-men-	.
8F#\	.	.	.	.	.	.	.	.	.	.	.	.
8F#\	.	.	.	.	.	.	.	.	.	.	.	.
8F#\J	.	.	.	.	.	.	.	.	.	.	.	.
!	!	!	!	!	!	!	!	!	!	!LO:LB:g=original	!	!
=47	=47	=47	=47	=47	=47	=47	=47	=47	=47	=47	=47	=47
8Fn\L	6 4	1ryy	1ryy	1ryy	1ryy	2Fn\	.	2b\	.	2dd\	.	.
8F\	.	.	.	.	.	.	.	.	.	.	.	.
8F\	.	.	.	.	.	.	.	.	.	.	.	.
8F\J	.	.	.	.	.	.	.	.	.	.	.	.
4E\	.	.	.	.	.	4E\	.	4cc\	.	4ee\	.	.
4D\	.	.	.	.	.	4D\	.	4dd\	.	4ffn\	.	.
!LO:LB:g=original	!	!	!	!	!	!	!	!LO:LB:g=original	!	!	!	!
=48	=48	=48	=48	=48	=48	=48	=48	=48	=48	=48	=48	=48
!	!	!	!	!	!	!LO:TX:t=P:problem=mixed beam	!	!	!	!	!	!
8C\L	.	1ryy	1ryy	1ryy	1ryy	8C/L	.	4.g\	.	4gg\	.	.
8c\	.	.	.	.	.	8c\	.	.	.	.	.	.
8E\	.	.	.	.	.	8E\	.	.	.	4cc\	.	.
8F\J	.	.	.	.	.	8Fn\J	.	16a\LL	.	.	.	.
.	.	.	.	.	.	.	.	16f\JJ	.	.	.	.
!	!	!	!	!	!	!LO:LB:g=original	!	!	!	!	!	!
4G\	6 4	.	.	.	.	4G\	.	4e\	-ti-	4cc\	-ti-	.
4GG/	5 3	.	.	.	.	8GG/	-ti-	4d\	-bus	4b\	-bus	.
.	.	.	.	.	.	8GG/	-bus	.	.	.	.	.
=49	=49	=49	=49	=49	=49	=49	=49	=49	=49	=49	=49	=49
4C/	.	1ryy	1ryy	1ryy	1ryy	4C/	ſe	4c\	ſe	4cc\	se	.
4C/	.	.	.	.	.	4C/	ti-	4e\	ti-	4cc\	ti-	.
[>2GG/	6 4	.	.	.	.	2GG/	-men-	4e\	-men-	4cc\	-men-	.
.	.	.	.	.	.	.	.	8f\L	.	8dd\L	.	.
.	.	.	.	.	.	.	.	8c\J	.	8a\J	.	.
=50	=50	=50	=50	=50	=50	=50	=50	=50	=50	=50	=50	=50
2GG/]	5 3	1ryy	1ryy	1ryy	1ryy	4.GG/	-ti-	4.d\	-ti-	4.b\	-ti-	.
.	.	.	.	.	.	8GG/	-buſ	8c\	-bus	8cc\	-bus	.
!	!	!	!	!	!	!	!	!	!	!LO:LB:g=original	!	!
!	!	!	!	!	!	!	!	!	!	!LO:SIC:v:s=4cc	!	!
4C/	.	.	.	.	.	4C/	ſe	4c\	ſe	4dd\	ſe	.
!	!	!	!	!	!	!	!	!	!	!LO:TX:b:t=Siegue a 2.o	!	!
4r	.	.	.	.	.	4r	.	4r	.	4r	.	.
==	==	==	==	==	==	==	==	==	==	==	==	==
*-	*-	*-	*-	*-	*-	*-	*-	*-	*-	*-	*-	*-
!!!system-decoration: [g1][g2]s8
!!!RDF**kern: > = above
!!!RDF**kern: < = below
!!!ENC: Marta Lawrence
!!!END: 2021-02-14
!!!ENC: Kamil Watkowski
!!!END: 2021-02-09
